Gawaita/scalable/mimetypes/text-x-generic.svg

<?xml version="1.0" encoding="UTF-8"?>
<svg height="128px" viewBox="0 0 128 128" width="128px" xmlns="http://www.w3.org/2000/svg">
    <path d="m 28 8 h 50 l 30.042969 29.917969 v 74.058593 c 0 4.433594 -3.609375 8.023438 -8.042969 8.023438 h -72 c -4.433594 0 -8 -3.566406 -8 -8 v -96 c 0 -4.433594 3.566406 -8 8 -8 z m 0 0" fill="#f6f5f4"/>
    <g fill="#deddda">
        <path d="m 78 8 v 22 c 0 4.433594 3.609375 7.921875 8.042969 7.921875 l 22 -0.003906 z m 0 0"/>
        <path d="m 34 100 h 60 c 1.105469 0 2 0.894531 2 2 s -0.894531 2 -2 2 h -60 c -1.105469 0 -2 -0.894531 -2 -2 s 0.894531 -2 2 -2 z m 0 0"/>
        <path d="m 34 92 h 60 c 1.105469 0 2 0.894531 2 2 s -0.894531 2 -2 2 h -60 c -1.105469 0 -2 -0.894531 -2 -2 s 0.894531 -2 2 -2 z m 0 0"/>
        <path d="m 34 84 h 60 c 1.105469 0 2 0.894531 2 2 s -0.894531 2 -2 2 h -60 c -1.105469 0 -2 -0.894531 -2 -2 s 0.894531 -2 2 -2 z m 0 0"/>
        <path d="m 34 76 h 60 c 1.105469 0 2 0.894531 2 2 s -0.894531 2 -2 2 h -60 c -1.105469 0 -2 -0.894531 -2 -2 s 0.894531 -2 2 -2 z m 0 0"/>
        <path d="m 34 68 h 60 c 1.105469 0 2 0.894531 2 2 s -0.894531 2 -2 2 h -60 c -1.105469 0 -2 -0.894531 -2 -2 s 0.894531 -2 2 -2 z m 0 0"/>
        <path d="m 34 60 h 60 c 1.105469 0 2 0.894531 2 2 s -0.894531 2 -2 2 h -60 c -1.105469 0 -2 -0.894531 -2 -2 s 0.894531 -2 2 -2 z m 0 0"/>
        <path d="m 34 52 h 60 c 1.105469 0 2 0.894531 2 2 s -0.894531 2 -2 2 h -60 c -1.105469 0 -2 -0.894531 -2 -2 s 0.894531 -2 2 -2 z m 0 0"/>
        <path d="m 34 44 h 36 c 1.105469 0 2 0.59375 2 1.324219 v 1.351562 c 0 0.730469 -0.894531 1.324219 -2 1.324219 h -36 c -1.105469 0 -2 -0.59375 -2 -1.324219 v -1.351562 c 0 -0.730469 0.894531 -1.324219 2 -1.324219 z m 0 0"/>
        <path d="m 34 36 h 36 c 1.105469 0 2 0.59375 2 1.324219 v 1.351562 c 0 0.730469 -0.894531 1.324219 -2 1.324219 h -36 c -1.105469 0 -2 -0.59375 -2 -1.324219 v -1.351562 c 0 -0.730469 0.894531 -1.324219 2 -1.324219 z m 0 0"/>
        <path d="m 34 28 h 36 c 1.105469 0 2 0.59375 2 1.324219 v 1.351562 c 0 0.730469 -0.894531 1.324219 -2 1.324219 h -36 c -1.105469 0 -2 -0.59375 -2 -1.324219 v -1.351562 c 0 -0.730469 0.894531 -1.324219 2 -1.324219 z m 0 0"/>
    </g>
</svg>

<svg width="128" height="128" viewBox="0 0 128 128" fill="none" xmlns="http://www.w3.org/2000/svg">
<path d="M28 8H78L108.043 37.918V111.977C108.043 116.41 104.434 120 100 120H28C23.5664 120 20 116.434 20 112V16C20 11.5664 23.5664 8 28 8Z" fill="#F6F5F4"/>
<g filter="url(#filter0_d_1_2413)">
<g clip-path="url(#paint0_angular_1_2413_clip_path)" data-figma-skip-parse="true"><g transform="matrix(0.0125 0.0175 -0.0175708 0.0125506 95.5 20.5)"><foreignObject x="-1193.06" y="-1193.06" width="2386.12" height="2386.12"><div xmlns="http://www.w3.org/1999/xhtml" style="background:conic-gradient(from 90deg,rgba(234, 234, 232, 1) 0deg,rgba(190, 190, 190, 1) 360deg);height:100%;width:100%;opacity:1"></div></foreignObject></g></g><path d="M78 8V30C78 34.4336 81.6094 37.9219 86.043 37.9219L108.043 37.918L78 8Z" data-figma-gradient-fill="{&#34;type&#34;:&#34;GRADIENT_ANGULAR&#34;,&#34;stops&#34;:[{&#34;color&#34;:{&#34;r&#34;:0.92067307233810425,&#34;g&#34;:0.91873663663864136,&#34;b&#34;:0.91292703151702881,&#34;a&#34;:1.0},&#34;position&#34;:0.0},{&#34;color&#34;:{&#34;r&#34;:0.74879807233810425,&#34;g&#34;:0.74879807233810425,&#34;b&#34;:0.74879807233810425,&#34;a&#34;:1.0},&#34;position&#34;:1.0}],&#34;stopsVar&#34;:[{&#34;color&#34;:{&#34;r&#34;:0.92067307233810425,&#34;g&#34;:0.91873663663864136,&#34;b&#34;:0.91292703151702881,&#34;a&#34;:1.0},&#34;position&#34;:0.0},{&#34;color&#34;:{&#34;r&#34;:0.74879807233810425,&#34;g&#34;:0.74879807233810425,&#34;b&#34;:0.74879807233810425,&#34;a&#34;:1.0},&#34;position&#34;:1.0}],&#34;transform&#34;:{&#34;m00&#34;:25.000005722045898,&#34;m01&#34;:-35.141643524169922,&#34;m02&#34;:100.57082366943359,&#34;m10&#34;:35.0,&#34;m11&#34;:25.101181030273438,&#34;m12&#34;:-9.5505905151367188},&#34;opacity&#34;:1.0,&#34;blendMode&#34;:&#34;NORMAL&#34;,&#34;visible&#34;:true}"/>
</g>
<path d="M34 100H94C95.1055 100 96 100.895 96 102C96 103.105 95.1055 104 94 104H34C32.8945 104 32 103.105 32 102C32 100.895 32.8945 100 34 100Z" fill="#DEDDDA"/>
<path d="M34 92H94C95.1055 92 96 92.8945 96 94C96 95.1055 95.1055 96 94 96H34C32.8945 96 32 95.1055 32 94C32 92.8945 32.8945 92 34 92Z" fill="#DEDDDA"/>
<path d="M34 84H94C95.1055 84 96 84.8945 96 86C96 87.1055 95.1055 88 94 88H34C32.8945 88 32 87.1055 32 86C32 84.8945 32.8945 84 34 84Z" fill="#DEDDDA"/>
<path d="M34 76H94C95.1055 76 96 76.8945 96 78C96 79.1055 95.1055 80 94 80H34C32.8945 80 32 79.1055 32 78C32 76.8945 32.8945 76 34 76Z" fill="#DEDDDA"/>
<path d="M34 68H94C95.1055 68 96 68.8945 96 70C96 71.1055 95.1055 72 94 72H34C32.8945 72 32 71.1055 32 70C32 68.8945 32.8945 68 34 68Z" fill="#DEDDDA"/>
<path d="M34 60H94C95.1055 60 96 60.8945 96 62C96 63.1055 95.1055 64 94 64H34C32.8945 64 32 63.1055 32 62C32 60.8945 32.8945 60 34 60Z" fill="#DEDDDA"/>
<path d="M34 52H94C95.1055 52 96 52.8945 96 54C96 55.1055 95.1055 56 94 56H34C32.8945 56 32 55.1055 32 54C32 52.8945 32.8945 52 34 52Z" fill="#DEDDDA"/>
<path d="M34 44H70C71.1055 44 72 44.5937 72 45.3242V46.6758C72 47.4063 71.1055 48 70 48H34C32.8945 48 32 47.4063 32 46.6758V45.3242C32 44.5937 32.8945 44 34 44Z" fill="#DEDDDA"/>
<path d="M34 36H70C71.1055 36 72 36.5937 72 37.3242V38.6758C72 39.4063 71.1055 40 70 40H34C32.8945 40 32 39.4063 32 38.6758V37.3242C32 36.5937 32.8945 36 34 36Z" fill="#DEDDDA"/>
<path d="M34 28H70C71.1055 28 72 28.5937 72 29.3242V30.6758C72 31.4063 71.1055 32 70 32H34C32.8945 32 32 31.4063 32 30.6758V29.3242C32 28.5937 32.8945 28 34 28Z" fill="#DEDDDA"/>
<defs>
<filter id="filter0_d_1_2413" x="63.7" y="1.7" width="54.643" height="54.5219" filterUnits="userSpaceOnUse" color-interpolation-filters="sRGB">
<feFlood flood-opacity="0" result="BackgroundImageFix"/>
<feColorMatrix in="SourceAlpha" type="matrix" values="0 0 0 0 0 0 0 0 0 0 0 0 0 0 0 0 0 0 127 0" result="hardAlpha"/>
<feOffset dx="-2" dy="6"/>
<feGaussianBlur stdDeviation="6.15"/>
<feComposite in2="hardAlpha" operator="out"/>
<feColorMatrix type="matrix" values="0 0 0 0 0.433894 0 0 0 0 0.433894 0 0 0 0 0.433894 0 0 0 0.46 0"/>
<feBlend mode="normal" in2="BackgroundImageFix" result="effect1_dropShadow_1_2413"/>
<feBlend mode="normal" in="SourceGraphic" in2="effect1_dropShadow_1_2413" result="shape"/>
</filter>
<clipPath id="paint0_angular_1_2413_clip_path"><path d="M78 8V30C78 34.4336 81.6094 37.9219 86.043 37.9219L108.043 37.918L78 8Z"/></clipPath></defs>
</svg>
